X:1
T:Apparitions No. 1
T:Apparitions
T:Franz Liszt
T:No. 1
C:Franz Liszt
%%score { ( 1 4 ) | ( 2 3 ) }
L:1/8
M:6/4
K:F#
V:1 treble nm="Piano" snm="Pno."
V:4 treble 
V:2 bass 
V:3 bass 
V:1
 z12[Q:1/4=80]"^Senza Lentezza quasi Allegretto."[Q:1/4=96] | %1
 z2!pp![Q:1/4=80] d2 e2[Q:1/4=96] A4!pp! G2 | z4 z2!<(!{/G} (5:4:5G/A/G/^^F/G/ A2 B2 | %3
 c6!<)![Q:1/4=86]!pp! !^!=d6 | z ^d2 d2 d[Q:1/4=96] E6 | %5
 z2 z/!ppp![Q:1/4=80] ^^D/"_cresc."F/E/ ^^G/[Q:1/4=96]^B/d/f/ ^^d/e/g/f/ e/^^g/[Q:1/4=80]!8va(!^b/d'/ f'/^^d'/(3e'/{/g'}f'/e'/ | %6
!pp! (3c''2"_cresc." ^b'2 a'2- a'4 z[Q:1/4=96]!p! a'2 a'[Q:1/4=88] | %7
[Q:1/4=104]!>(! a'd''c''g'd'a gc'ad'c'g!8va)!!>)! |!pp! dAGc[Q:1/4=96] A=d cG[Q:1/4=80]^dA Gc | %9
 z4 z2!pp! (3^^GG!tenuto!c !fermata!z4 |!pp![Q:1/4=120]"^cantando" !>!A6- A2!pp! !>!G2!pp! !>!F2 | %11
!pp! !>![Ac]6-!>(!!>(! [Ac]2!pp![Q:1/4=100] !>![GB]2!pp! !>![FA]2!>)!!>)! | %12
!pp![Q:1/4=120] !^![df]6!pp! !>![=de]4!pp![Q:1/4=100] !>![Bd]2 | %13
!pp![Q:1/4=120] !>![Ac]2!pp! A4- A2!pp! !>!A2!pp! !>!A2 | %14
!pp!{/A} !>!G2!pp! !>!^^F2!pp! !>!G2!pp! !>!A2 x4 | %15
!pp![Q:1/4=110]{/A} !>!G2!pp! !>!^^F2!pp! !>!G2!pp! !>!A2 x4 | %16
!ppp![Q:1/4=120] =a!<(!_b_b' z z2[Q:1/4=98] =A_Bb z z2!<)! | %17
[K:bass]!pp![Q:1/4=86] =A,,_B,,_B,[Q:1/4=120] z z2[K:treble] z2!pp!!8va(! [=g'_b']2 [_a'=c'']2 | %18
 [_b_e'=g']4!pp! [_a=c'=f']2!8va)! z2!pp! [=gb]2 [ac']2 | %19
 [_B_e=g]2!pp! [_A=c=f]2!pp! [=GB]2 (4:3:4[Ac]2!<(! [=C=F]2 [_EG]2 [GB]2!<)! | %20
!pp! (4:3:4[_A=c]2!<(! [=D=F]2 [_E=G]2 [G_B]2!<)!!p! [^F=B^d]4!pp! [^G^^ce]2 | %21
!<(! z2 [Bdf]2 [^^cg]2 (5:3:5[FBd]2 [G^^ce]2 [Bdf]2 [=dg]2!<)!!p! [^d^^g]2 | %22
!p!!8va(! [a'c'']!>(!d''[c'a']g'[Q:1/4=104]"_perendosi"[af']g' e'c'[ac'][Q:1/4=110]d'!8va)![ca]g | %23
 [Af]gdc[Ac][Q:1/4=100]d [CA]G[A,F]GDC | %24
 z2[Q:1/4=60]"_morendo"[Q:1/4=80] CD[I:staff +1][F,A,]G,!>)![I:staff -1] x2 z4!ppp![Q:1/4=76] | %25
 z x3 x2 !fermata!z2!p![Q:1/4=84] F2 =G2 | %26
 C4!pp! B,2 z!pp!{/B,} (5:4:5B,/4!<(!C/4B,/4A,/4B,/4 =E=GBc!<)! | %27
!p! !>!^G4!pp! =A2-!<(! A[Af][Af][Af]!tenuto![c=a][B=g]!<)! | %28
!p! !>![=Af]3!>(! [=G=e][G_B]!>)!!pp![Q:1/4=72][=EA]!<(! [Fd][Ge]!<)!!p!!>(! [=B=g]3!>)!!pp![Q:1/4=84] [Af] | %29
 [=Af]4 [F=d]2 z[Q:1/4=120]!8va(!!<(! [ff'][ff'][ff'][ff'][=g=g']!8va)!!<)! | %30
!f! [=c=c']4[Q:1/4=80]!mp! [_B_b]2 z[Q:1/4=80] (5:4:5b/4c'/4b/4=a/4b/4!mf![Q:1/4=120]!8va(!!<(! [_e_e'][=g=g'][=bb'][=c'=c'']!<)! | %31
!f! [=a=a']4[Q:1/4=80]!mp! [_b_b']2!mf![Q:1/4=160] (3[=e=e']"_cresc."[=f=f'][=g=g'] (3[aa'][bb'][=b=b'] (3[=c'=c''][^c'^c''][=d'=d''] | %32
!fff![Q:1/4=100] [=f'=f''] !^![=e'=e'']2 !^![_e'_e'']2 !^![=c'=c'']2[Q:1/4=90]"_ritenuto"!>(! [=a=a']!>![_g_g'][=ff'][=e=e']!tenuto![_e_e']!8va)!!>)! || %33
[K:C][Q:1/4=130]!f! [dd']4!>(! [dd']2 z[Q:1/4=120] [dd']2 [dd']2 [dd']!>)! | %34
!mp![Q:1/4=110]{/d'} [gg'] z !^![dd']3 [^c^c'][Q:1/4=100]{/c'} [gg'] z !^![cc']3!mp! [=c=c'] | %35
[Q:1/4=90]"_dim."{/c'} [gg'] z !^!B4 z !>!_B2 !>!B2 B | %36
!pp![Q:1/4=110] _B/!<(!^G/B/A/ c/d/f/[Q:1/4=140]_e/ g/_b/^g/a/!8va(!c'/d'/f'/_e'/ g'/_b'/^g'/a'/ c''/d''/!<)!!mp![Q:1/4=90](3f''/e''/_e''/ | %37
!>(!{/d''_e''f''} !>!e''2 !>!d'' x (3x x _e'- (3e' x d'!8va)! x2 (3:2:2x _e2!>)! | %38
[Q:1/4=90] (3A!>!d_B (3_EDA (3!>!BED(3A[Q:1/4=80]!>!BE (3DA[Q:1/4=60]!>!B (3ED!tenuto!A | %39
[Q:1/4=130]"^molto pronunziato la melodia"!p! !>![G_B]6- [GB]2!p! A2!p! G2 | %40
!p! !>![_Bd]6- [Bd]2!p! [Ac]2!p! [GB]2 |!mp! [eg]6!mp! !>![_e^f]4!mp! [ce]2 | %42
!p! [_Bd]2!p! B4- B2!p! B2!p! B2 |!p!{/_B} _A2!p! G2!p! A2!p! =A2 x4 | %44
!p!{/d} c2!p! B2!p! c2!p! d2 x4 |!>(! ^cdd'!>)!!pp! c!<(!dd' ^CDd!<)![Q:1/4=100]"^ritard" x x2 | %46
!p![Q:1/4=130] [B^d]6- [Bd]2!p! ^c2!p! B2 |!mp! !^![^d^f]6- [df]2!p! !>![^ce]2!p! !>![Bd]2 | %48
!mf! !^![^gb]6!mf! !^![=g^a]4!mp! !>![eg]2 |!p! !^![^d^f]2!p! !>!d4 x2!p! [^Dd]2!p! [Dd]2 | %50
!p!{/^d} !>!^c2 !>!^B2 !>!c2[Q:1/4=150] !>!d2 x4 | %51
!mp![Q:1/4=130]{/g} !>![=d=f]2 !>![ce]2 !>![df]2[Q:1/4=150] !>!g2 x4 | %52
[Q:1/4=130]!mf!{/g} !>!f2 !>!_e2 !>!f2[Q:1/4=150] !>!g2 x4 | %53
[Q:1/4=130]{/_b} !^![^fa]2 !^![eg]2 !^![fa]2{/c'} !^![gb]2 !^![fa]2 !^![gb]2 | %54
 z2!fff! !^![^d^d']2 !^![ee']2 !>![=Bg=b]4 !wedge![^A^a]2 | %55
 z[Q:1/4=200]"_molto rinforzando e stringendo"!8va(! !^![^a'^d'']!wedge![^^f'e'']!^![f'b']!wedge![e'a'] !^![e'^^g']!wedge![^c'a'] !^![c'^f']!wedge![^ae'] !^![a^d']!wedge![^^fe']!8va)!!>(! !^![fb] | %56
!wedge![e^a][Q:1/4=180] !^![e^g]!wedge![^ca] !^![c^f]!wedge![^Ae]!>)![Q:1/4=120]!mp! !^![A^d]!wedge![^^Fe]!mf! [EB]!wedge![FA][Q:1/4=180] z z2 | %57
 z[Q:1/4=150]"^rallentando" !>!^d'"_dim."e' b!wedge!^a ^^g!wedge!a[Q:1/4=130] ^f!wedge!e ^d!wedge!e!p! !tenuto!B | %58
 !wedge!^A[Q:1/4=115] z z2 z2 z!pp! ^de!pp!!tenuto!B^A z | %59
 z4 z2!pp! ^de!pp!!tenuto!B^A z2[Q:1/4=100] || %60
[K:F#] z4 z2!pp!{/A} (5:4:5A/B/A/G/A/ B2 c2[Q:1/4=110]"^quasi Andante" | d6 z2!<(! d4[Q:1/4=120] | %62
 z .d2 .d2 .d2 d (3ddd (5:4:5d/=e/d/c/!<)!!p!d/ |!p!{/d} f4!>(! =e2 d2 c2 G2 | d6 z2!>)!!pp! d4 | %65
 E2 z/[Q:1/4=120]!pp! ^^D/!<(!F/E/ ^^G/^B/d/f/[Q:1/4=160] ^^d/e/g/f/ e/^^g/!8va(!^b/d'/ f'/^^d'/(3e'/f'/e'/!<)! | %66
!p![Q:1/4=110] (3c''2!>(! ^b'2 a'2!>)!!pp! a'4 z a'2 a' | %67
[Q:1/4=104]!>(! a'd''c''g'd'a gc'"^calando"ad'c'g!8va)!!>)! | %68
!pp! dAGc[Q:1/4=96] A=d cG[Q:1/4=80]^dA G"^rit."c | z4 z2!pp! (3^^GG!tenuto!c !fermata!z4 | %70
!pp![Q:1/4=120] !>!a6- a2!pp! !>!g2!pp! !>!f2 | %71
!pp! !>![ac']6-!pp! [ac']2!pp![Q:1/4=100] !>![gb]2!pp! !>![fa]2 | %72
!pp![Q:1/4=120] !^![bd']6!pp! !>![=d'e']4!pp![Q:1/4=100] !>![bd']2 | %73
!pp![Q:1/4=120] !>![ac']2!pp! a4- a2!pp! !>!a2!pp![Q:1/4=100] !>!a2 | %74
!pp![Q:1/4=120]{/a} !>!g2!pp! !>!^^f2!pp![Q:1/4=100] !>!g2!pp![Q:1/4=120] !>!a2 x4[Q:1/4=100] | %75
!pp![Q:1/4=120]{/a} !>!g2!pp! !>!^^f2!pp![Q:1/4=100] !>!g2!pp![Q:1/4=120] !>!a2 x4[Q:1/4=90] | %76
!ppp![Q:1/4=120] =a_b_b' =A_Bb ABb[Q:1/4=96][I:staff +1] =A,_B,[I:staff -1]B | z12[Q:1/4=84] | %78
 z!pp! [B,DG][B,DG][B,DG][B,DG][B,DG] z2 z4 | z!pp! [FA][FA][FA][FA][FA] z2 z4[Q:1/4=94] | %80
 z!pp! [B,E][B,E] z z2 z[K:bass] [C,E,][C,E,][C,E,][C,E,] z | %81
 z[Q:1/4=160]!<(! E,F,A,CF!<)![K:treble]!mp!"_cresc." (3Acf[Q:1/4=110] a[Aa][Aa][Bb] | %82
!mf! [=E=e]4[Q:1/4=120]!mf![Q:1/4=110] [Dd]2 z!<(!{/d} (5:4:5d/4^e/4d/4^^c/4d/4[Q:1/4=160] [Gg][Bb][dd'][ee']!<)! | %83
!f! !>![^B^b]4[Q:1/4=120]!f![Q:1/4=110] [cc']2 z!f!!8va(! [c'a']!<(![c'a'][c'a']!>![e'c''][d'b']!<)! | %84
[Q:1/4=60]!ff! [c'a'][Q:1/4=110][^b^^g'][=b^g'][Q:1/4=180][ac'][=a^b][g=b]!8va)!!mf! [c^a][^B^^g][=B^g]!f![Q:1/4=140][Ac][=A^B][G=B] | %85
[Q:1/4=160]!mp! !>![B=d][Ac][=A^B][G=B][Q:1/4=100]"^rallentando molto" !>![B^d][^Ac][=A^B][G=B]!p![Q:1/4=80] (5:4:5!>![db]!>(![=db][ca][Q:1/4=60][^B^^g]!tenuto![=B^g]!>)! | %86
[Q:1/4=100]"^in Tempo"!p! [Af]6 z2 z4 | %87
!pp![Q:1/4=90]!8va(! =d''=e''b'[Q:1/4=100]=a'f'g' =e'=d'!8va)!=abgf | %88
 =d=eB[Q:1/4=90]=AFG[Q:1/4=100]!p! [F^A]6- |[M:3/4] [FA]4 z2 | %90
[M:6/4][Q:1/4=90]!>(! =d'=e'b[Q:1/4=100]=afg =e=d=ABGF!>)! | %91
[K:bass]!pp! =D=EB,[Q:1/4=90]=A,F,G,[Q:1/4=100] ^A,6- | %92
 A,6- [F,A,]!>(![G,B,][A,C][B,D][K:treble][CF][DG] | %93
 [FA][GB][Q:1/4=80]"^molto ritardando"[Ac][Bd][cf][dg] [fa]!8va(![gb][Q:1/4=70][ac'][bd'][c'f'][d'g']!>)! | %94
[Q:1/4=60]!ppp! [f'a']3 [f'a']2 [f'a']{/[e'^^g'][f'a'][^g'b']} [f'a']6!8va)![Q:1/4=40] |] %95
V:2
 z2!ppp!!ped! ^B,,C,CB,,!ped-up!!ped! C,CB,,C,CB,,!ped-up! | %1
!ped! C,C^B,,C,CB,,!ped-up!!ped! C,C=B,,C,CB,, | %2
 C,[E,C]B,,C,[E,C]B,,!ped-up! C,[E,C]!ped!B,,C,[E,C]B,,!ped-up! | %3
!ped!"_cresc." C,[F,C]A,,C,[F,C]A,,!ped-up!!ped! [F,=D]=A,,=D,[F,D]A,,[F,D]!ped-up! | %4
!ped! =A,,^B,,!ppp![F,^D]A,,B,,[F,D]!ped-up!!ped!"_dim." ^^G,,D,[E,^B,]G,,D,[E,B,]!ped-up! | %5
!ppp!!ped! ^^G,,D,[E,^B,]G,,D,[E,B,]!ped-up!!ped! G,,D,[E,B,]G,,D,[E,B,]!ped-up! | %6
!ppp!!ped! A,,C,"_cresc."[E,C]A,,C,[E,C] A,,C,[E,C]!ppp!A,,C,[E,C]!ped-up! | %7
!ped!!>(! C,E,[B,C]C,E,[B,D] C,E,[B,C]C,E,[B,C]!>)! |!ppp! E,2 C,2 E,2 C,2 E,4 | %9
 !fermata!z12!ped-up! | %10
!p!!ped! z/!ppp! C,/F,/C,/ F,/C,/F,/C,/ F,/C,/F,/C,/ F,/C,/F,/C,/ F,/C,/F,/C,/ F,/C,/F,/C,/!ped-up! | %11
!p!!ped! z/ F,/A,/F,/ A,/F,/A,/F,/ A,/F,/A,/F,/ A,/F,/A,/F,/ A,/F,/A,/F,/ A,/F,/A,/F,/!ped-up! | %12
!p!!ped! z/ ^B,/D/B,/ D/B,/D/B,/ D/B,/D/B,/!ped-up!!p!!ped! z/ =B,/=D/B,/ D/B,/D/B,/ D/B,/D/B,/!ped-up! | %13
!p!!ped! z/ F,/A,/F,/ A,/F,/A,/F,/ A,/F,/A,/F,/ A,/F,/A,/F,/ A,/F,/A,/F,/ A,/F,/A,/F,/!ped-up! | %14
!p!!ped! z/ D,/G,/D,/ G,/D,/G,/D,/ B,,/D,/B,,/D,/!ped-up!!p!!ped! A,,2 x4[K:treble]!ped-up! | %15
[K:bass]!p!!ped! z/ D,/G,/D,/ G,/D,/G,/D,/ B,,/D,/B,,/D,/!ped-up!!p!!ped! A,,2 x4[K:treble]!ped-up! | %16
!ped! z2 z =A_B_b z2 z =A,_B,B!ped-up! |[K:bass] z2 z!ppp!!ped! =A,,_B,,_B, A,,B,,B, A,,B,,B, | %18
 =A,,_B,,_B,A,,B,,B, A,,B,,B,A,,B,,B, | %19
 =A,,_B,,_B,!ped-up!!ped! A,,B,,B, A,,B,,B,A,,B,,B,!ped-up! | %20
!ppp!!ped! =A,,_B,,_B,A,,B,,B,!ped-up!!ped! ^E,,F,,F,E,,F,,F, | %21
!<(! E,,F,,F,E,,F,,F, E,,F,,F,E,,F,,!<)!!pp!F,!ped-up! | %22
!pp!!ped! F,,,C,,C,F,,,C,,C, F,,C,A,F,,C,A, | F,,,C,,C,F,,,C,,C, F,,,C,,C,F,,,C,,C, | %24
 z2 A,2 x2!ped-up! z!ped! [F,A,][F,A,][F,A,][F,A,][F,A,]!ped-up! | %25
 z!ped! [F,A,][F,A,][F,A,][F,A,][F,A,]!ped-up! !fermata!z4 z2 | %26
 z!pp!!ped! [=G,,=E,][G,,E,][G,,E,]!ped-up![G,,E,][G,,E,] z4 z2 | %27
 z!ped! [=A,,F,=D][F,D][F,D]!ped-up![F,D][F,D] z2 z4 | %28
 z"^molto espresssivo" [=A,,=G,C][A,,G,C] z z2 z [A,,G,C][A,,G,C][A,,G,C] z2 | %29
!pp!!ped! z [=D,=D][F,D][=A,D] z D!ped-up! z2!ped! z4!ped-up! | %30
!ped! z!mp!!>(! =G,,[=G,_B,_E][G,B,E]!>)!!p![G,B,E][G,B,E] z2!ped-up!!ped! z4!ped-up! | %31
 z!mp!!ped! !^!=F,,[=F,_B,=D=F][F,B,DF]!p![F,B,DF][F,B,DF]!ped-up! z2 z4 | %32
 z[K:treble]!f!!ped! [=F,=C_E=A][F,CEA][F,CEA][F,CEA] z!>(! [F,CEA][F,CEA][F,CEA][F,CEA][F,CEA]!ped-up! z!>)! || %33
[K:C]!mp!!ped! C"_dim."DACDA!ped-up!!ped! B,D_AB,DA!ped-up! | %34
[K:bass]!p!!ped! B,DG_B,^CG!ped-up!!ped! B,CGB,=CG!ped-up! | %35
!pp!!ped! G,"_dim."CGG,CG!ped-up!!ped! G,_B,GG,B,!ped-up!G | %36
!pp! G,!ped!A,_EG,A,E G,A,EG,A,E!ped-up! |!ped! ^F,CDF,CD F,CDF,CD!ped-up! | %38
!ped! z12!ped-up!!ped!!ped-up!!ped!!ped-up! | %39
!p!!ped! z/ D,/G,/D,/ G,/D,/G,/D,/ G,/D,/G,/D,/ G,/D,/G,/D,/ G,/D,/G,/D,/ G,/D,/G,/D,/!ped-up! | %40
!p!!ped! z/ F,/_B,/F,/ B,/F,/B,/F,/ B,/F,/B,/F,/ B,/F,/B,/F,/ B,/F,/B,/F,/ B,/F,/B,/F,/!ped-up! | %41
!mp!!ped! z/ ^C/E/C/ E/C/E/C/ E/C/E/C/!mp! z/ =C/_E/C/ E/C/E/C/ E/C/E/C/!ped-up! | %42
!p!!ped! z/ G,/_B,/G,/ B,/G,/B,/G,/ B,/G,/B,/G,/ B,/G,/B,/G,/ B,/G,/B,/G,/ B,/G,/B,/G,/!ped-up! | %43
!p!!ped! z/ _E,/_A,/E,/ A,/E,/A,/E,/ A,/E,/A,/E,/!ped-up!!ped! (9:6:9D,=A,D,[K:treble]A,^FA,FAd!ped-up! | %44
[K:bass]!p!!ped! z/ _A,/C/A,/ C/A,/C/A,/ C/A,/C/A,/!ped-up!!ped! (9:6:9D,=A,D,[K:treble]A,^FA,FAd!ped-up! | %45
 x4 x4 x[K:bass]!mp! ^C,!ped!D,!mp!D!ped-up! | %46
!ped! z/ ^F,/B,/F,/ B,/F,/B,/F,/ B,/F,/B,/F,/ B,/F,/B,/F,/ ^C/F,/C/F,/ B,/F,/B,/F,/!ped-up! | %47
!ped! z/ ^A,/^D/A,/ D/A,/D/A,/ D/A,/D/A,/ D/A,/D/A,/ E/A,/E/A,/ D/A,/D/A,/!ped-up! | %48
!ped! z/[K:treble] ^E/^G/E/ G/E/G/E/ G/E/G/E/[K:bass] z/[K:treble] =E/=G/E/ G/E/G/E/ G/E/G/E/!ped-up! | %49
[K:bass]!ped! z/ B,/^D/B,/ D/B,/D/B,/ D/B,/D/B,/ D/B,/D/B,/ ^F,/B,/F,/B,/ F,/^D,/F,/D,/!ped-up! | %50
!ped! (3z ^C,E, (3z E,^G, (3z E,G,!ped-up!!ped! (9:6:9z ^^F,^A,F,A,^D^^F^A z!ped-up! | %51
!ped! (3z D_B, (3x CB, (3x DB,!ped-up!!ped! (9:6:9z[K:treble] =B,DB,DGBd z!ped-up! | %52
[K:bass]!ped! (3x F,C (3x _E,C (3x F,C!ped-up!!ped! (9:6:9z[K:treble] [G,_B,]_E[G,B,]EG_B_e z!ped-up! | %53
[K:bass]!ped! (3z [^F,A,]D (3z [E,G,]D (3z [F,A,]D!ped-up!!ped! (3z [G,_B,]D (3z [F,A,]D (3z [G,B,]D!ped-up! | %54
!fff!!ped! [^C,,^C,]!f! G,_B,E G,B,!>!E G,^A,E G,A,!ped-up! | %55
!ped! E ^^F,^A,E F,A,!>!E F,A,E!>(! G,A,!ped-up! | %56
!ped!E ^^F,^A,E!>)!!p! F,A,!>!E!ped-up!!ped! F,A,E G,A, | %57
E!ped-up!!mf!!ped! ^^F,"_dim."^A,E F,A,!>!E F,A,E G,!ped-up!!ped!A, | %58
 E!pp! ^^F,!>(!^A,E!ped-up!!ped! F,A,!>!E!>)!!ppp! F,A,E G,A, | %59
E!ped-up!!ppp!!ped! ^^F,^A,E!ped-up!!ped! F,A,!>!E F,A,E G,A, || %60
[K:F#] !fermata!E!ped-up!!pp!!ped! ^^F,A,E F,A,!ped-up!!ped!E F,!ped-up!!ped!A,E F,A,!ped-up! | %61
D!ped! D,G,D D,G,D!ped-up!!ped! D,G,D!<(! D,G, | D!ped-up!!ped! F,=A,D F,A,D F,A,D F,A,!<)! | %63
!pp!D!ped-up!!>(!!ped! F,B,=E F,B,E =E,G,C E,G,!ped-up! | %64
!ped!D D,F,D D,F,D!>)!!ped-up!!pp!!ped! D,F,D D,F, | %65
 ^B,!pp! D,!ped!!>(!E,B,!ped-up!!ped! D,E,!ped-up!!ped!B, D,E,B, D,!ped-up![E,B,]!>)! | %66
!pp!!ped! A,,!ped-up!C,[E,C]!pp! A,,C,[E,C] A,,C,[E,C] A,,C,[E,C] | %67
!ped! C,E,[B,C]C,E,[B,D] C,E,[B,C]C,E,[B,C]!ped-up! | E,2 C,2 E,2 x2 x4 | !fermata!z12 | %70
!ped! z/[K:treble]!ppp! C/F/C/ F/C/F/C/ F/C/F/C/ F/C/F/C/ F/C/F/C/ F/C/F/C/!ped-up! | %71
[K:bass]!ped! z/[K:treble] F/A/F/ A/F/A/F/ A/F/A/F/ A/F/A/F/ A/F/A/F/ A/F/A/F/!ped-up! | %72
[K:bass]!p!!ped! z/[K:treble] ^B/d/B/ d/B/d/B/ d/B/d/B/[K:bass]!p!!ped-up!!ped! z/[K:treble] =B/=d/B/ d/B/d/B/ d/B/d/B/!ped-up! | %73
[K:bass]!p!!ped! z/[K:treble] F/A/F/ A/F/A/F/ A/F/A/F/ A/F/A/F/ A/F/A/F/ A/F/A/F/!ped-up! | %74
!p!!ped! z/ D/G/D/ G/D/G/D/ B,/D/B,/D/!ped-up!!ped! (9:6:9A,EA,E^^cAcea!ped-up! | %75
!p!!ped! z/ D/G/D/ G/D/G/D/ B,/D/B,/D/!ped-up!!ped! (9:6:9A,EA,E^^cAcea!ped-up! | %76
[K:bass]!ped! z12!ped-up! | z4 z2 z2!p! ^A,2 B,2 | %78
 E,4!ped! D,2 !fermata!z{/D,} (5:4:5D,/4E,/4D,/4^^C,/4D,/4 G,B,DE!ped-up! | %79
!ped! !arpeggio!!>![C,F,^B,]4!ped-up! C2-!ped-up! C[K:treble]!<(!!ped! [CA][CA]!<)![CA]!p!!tenuto![Ec]!p!!>(![D=B]!>)! | %80
 !>![CA]3 [B,G]!p![B,=D]!tenuto![G,C]!<(! [A,^^F][B,G]!<)! !^![^DB]3 [CA] | %81
!ped! !>![CA]4 [A,F]2[K:bass]!ped-up!!ped! [A,C]2 [F,A,]2!ped-up! [C,F,]2 | %82
!ped! [B,,,B,,] [^^F,A,C][F,A,C][F,A,C][G,B,][G,B,] z2!ped! z4!ped-up! | %83
!ped! [C,,C,] [F,=A,=D][F,A,D][F,A,D]!ped-up!!ped![F,^A,C][F,A,C] z4 z2 | %84
!ped! [C,,C,] [G,B,E]4 x!ped-up!!ped! z4!ped-up! z2 | z12 | %86
!pp!!ped! F,,C,[F,A,]F,,C,[F,A,] F,,C,[F,A,]F,,C,[F,A,]!ped-up! | %87
!ped! F,,^B,,[=D,=A,]F,,B,,[D,A,] F,,B,,[D,A,]F,,B,,[D,A,]!ped-up! | %88
 F,,^B,,[=D,=A,]F,,B,,[D,A,]!ped-up!!ped! F,,C,[F,^A,]F,,C,[F,A,] | %89
[M:3/4]!pp!!ped! F,,C,[F,A,] F,,C,[F,A,] | x6!ped-up! %90
[M:6/4]!ped! F,,,^B,,,[=D,,=A,,]F,,,B,,,[D,,A,,]!ped-up! F,,,B,,,[D,,A,,]F,,,B,,,[D,,A,,] | %91
 F,,,^B,,,[=D,,=A,,]F,,,B,,,[D,,A,,]!ped-up!!ped! F,,,C,,[F,,^A,,]F,,,C,,[F,,A,,] | %92
 F,,,C,,[F,,A,,]F,,,C,,[F,,A,,]!>(! F,,,C,,[F,,A,,]F,,,C,,[F,,A,,] | %93
 F,,,C,,[F,,A,,]F,,,C,,[F,,A,,] F,,,C,,[F,,A,,]F,,,C,,[F,,A,,]!>)! | %94
!ppp! F,,,C,,[F,,A,,]F,,,C,,[F,,A,,] F,,,C,,[F,,A,,]F,,,C,,!fermata![F,,A,,] |] %95
V:3
 x12 | x12 | x12 | x12 | x12 | x12 | x12 | x12 | E,[B,D]C,[B,C]E,[B,=D] C,[B,C]E,[B,^D]C,[B,C] | %9
 x12 | F,, x x2 x8 | F,, x x2 x8 | !wedge!F,, x x4 !wedge!F,, x x4 | !wedge!F,, x x4 x2 x4 | %14
 B,, x x4 (9:6:9A,,!ppp!E,A,,E,^^CA,[K:treble]CEA | %15
[K:bass] B,, x x4 (9:6:9A,,!ppp!E,A,,E,^^CA,[K:treble]CEA | x12 |[K:bass] x2 x _E,,2 x E,,2 x4 | %18
 x2 x _E,,2 x E,,2 x4 | z6 _E,,2 x4 | _E,,2 x4 =B,,,2 x B,,,2 x | %21
 =B,,,2 x B,,,2 x =B,,,2 x B,,,2 x | x12 | x12 | %24
 x2 F,,C,F,,C, z [F,,C,][F,,C,][F,,C,][F,,C,][F,,C,] | %25
 z [F,,C,][F,,C,][F,,C,][F,,C,][F,,C,] x4 x2 | x12 | x12 | x12 | x12 | x12 | x12 | %32
 x[K:treble] x11 ||[K:C] ^F,2 x F,2 x =F,2 x F,2 x |[K:bass] E,2 z E,2 z _E,2 z E,2 z | %35
 D,2 x4 D,2 x4 | C,2 x C,2 x C,2 z C,2 z | D,2 z D,2 z D,2 z D,2 z | x12 | G,, x x2 x8 | %40
 G,, x x2 x8 | !wedge!G,, x x4 !wedge!G,, x x4 | !wedge!G,, x x2 x8 | %43
 !wedge!C, x x4 D,2[K:treble] x4 |[K:bass] !wedge!_A,, x x4 D,2[K:treble] x4 | x9[K:bass] x3 | %46
 B,, x x2 x8 | B,, x x2 x8 | B,,[K:treble] x x4[K:bass] B,,[K:treble] x x4 |[K:bass] B,, x x2 x8 | %50
 !>!E,,2 !>!^G,,2 !>!E,,2 !>!^D,,2 x4 | %51
 !>!!wedge!_B,,2 !>!!wedge!F,2 !>!!wedge!B,,2 !>!!wedge!G,,2[K:treble] x4 | %52
[K:bass] !>!!wedge!_A,,2 !>!!wedge!C,2 !>!!wedge!A,,2 !>!!wedge!_E,,2[K:treble] x4 | %53
[K:bass] !>!!wedge!D,,2 !>!!wedge!D,2 !>!!wedge!D,2 !>!!wedge!D,,2 !>!!wedge!D,2 !>!!wedge!D,2 | %54
 x ^C,2 x C,2 x C,2 x C, x | x ^C,2 x C,2 x C,2 x C, x | x ^C,2 x C,2 x C,2 x C, x | %57
 x ^C,2 x C,2 x C,2 x C, x | x ^C,2 x C,2 x C,2 x C, x | x ^C,2 x C,2 x C,2 x C, x || %60
[K:F#] x C,2 x C,2 x C,2 x C,2 | x ^B,,2 x B,,2 x =B,,2 x B,,2 | x B,,2 x B,,2 x B,,2 x B,,2 | %63
 x B,,2 x B,,2 x B,,2 x B,,2 | x B,,2 x B,,2 x A,,2 x B,,2 | x ^^G,,2 x G,,2 x G,,2 x G,,2 | x12 | %67
 x12 | E,[B,E]C,[B,C]E,[B,=D] C,[B,C]E,[B,^D]C,[B,C] | x12 | F,[K:treble] x x4 x2 x4 | %71
[K:bass] F,[K:treble] x x4 x2 x4 | %72
[K:bass] F,[K:treble] x x x x x[K:bass] !>!F,[K:treble] x x x x x |[K:bass] F,[K:treble] x x2 x8 | %74
 B, x x2 x2 x2 x4 | B, x x2 x2 x2 x4 |[K:bass] x12 | x12 | B,,4 x8 | x7[K:treble] x5 | x12 | %81
 x6[K:bass] x6 | x12 | x12 | x12 | x12 | x12 | x12 | x12 |[M:3/4] x6 |[M:6/4] x12 | x12 | x12 | %93
 x12 | x12 |] %95
V:4
 x12 | x12 | x12 | x12 | x12 | x9!8va(! x3 | x12 | x12!8va)! | x12 | x12 | %10
 z/ C/A,/C/ A,/C/A,/C/ A,/C/A,/C/ A,/C/A,/C/ A,/!ppp!C/A,/C/ A,/!ppp!C/A,/C/ | %11
 z/!ppp! =E/!<(!C/E/ C/E/C/E/ C/E/C/!<)!!pp!E/ C/E/C/E/ C/!ppp!E/C/E/ C/!ppp!E/C/E/ | %12
 z/!ppp! =A/F/A/ F/A/F/A/ F/A/F/A/ z/!ppp!!>(! G/E/G/ E/G/E/G/ E/G/E/!>)!!ppp!G/ | %13
 z/!ppp! F/C/F/ C/!ppp!F/C/F/ C/F/C/F/ C/F/C/F/ C/!ppp!F/C/F/ C/!ppp!F/C/F/ | %14
 z/!ppp! D/B,/D/ B,/!ppp!D/B,/D/ E/!ppp!D/E/D/ ^^C/!ppp!E/!<(!C/E/ ^^G/A/^^c/e/ (3ga!<)!!pp!!tenuto!a' | %15
 z/!ppp! D/B,/D/ B,/!ppp!D/B,/D/ E/!ppp!D/E/D/ ^^C/!ppp!E/!<(!C/E/ ^^G/A/^^c/e/ (3ga!<)!!pp!a' | %16
 x12 |[K:bass] x6[K:treble] x2!8va(! x4 | x6!8va)! x6 | x12 | x12 | x12 |!8va(! x10!8va)! x2 | %23
 x12 | x12 | x12 | x12 | x12 | x12 | x7!8va(! x5!8va)! | x8!8va(! x4 | x12 | x12!8va)! || %33
[K:C] x12 | x12 | x12 | x6!8va(! x6 | %37
 (3_e''_b'a' (3d''b'_e' (3!>!d'a'e'(3!>!_bad'!8va)! (3!>!_b_ed (3!>!ae!pp!_B | (3x d x x2 x8 | %39
 z/!ppp! D/_B,/D/ B,/D/B,/D/ B,/D/B,/D/ B,/D/B,/D/ B,/!ppp!D/B,/D/ B,/!ppp!D/B,/D/ | %40
 z/!ppp! F/D/F/ D/F/D/F/ D/F/D/F/ D/F/D/F/ D/!ppp!F/D/F/ D/!ppp!F/D/F/ | %41
 z/!ppp! _B/G/B/ G/B/G/B/ G/B/G/B/ z/!ppp! A/^F/A/ F/A/F/A/ F/!ppp!A/F/A/ | %42
 z/!ppp! G/D/G/ D/!ppp!G/D/G/ D/G/D/G/ D/G/D/G/ D/!ppp!G/D/G/ D/!ppp!G/D/G/ | %43
 z/!ppp! _E/C/E/ C/!ppp!E/C/E/ F/!ppp!E/F/E/ ^F/!pp!!<(!D/F/A/ ^c/d/^f/a/ (3^c'd'!<)!!mp![^f'a'] | %44
 z/!ppp! _A/_E/A/ E/!ppp!A/E/A/ E/!ppp!A/E/A/ ^F/!pp!!<(!D/F/=A/ ^c/d/^f/a/ (3^c'd'!<)!!mp!d'' | %45
 x12 | z/!ppp! ^F/^D/F/ D/F/D/F/ D/F/D/F/ D/F/D/F/ D/!ppp!F/D/F/ D/!ppp!F/D/F/ | %47
 z/!ppp! ^A/!<(!^F/A/ F/A/F/A/ F/A/F/A/ F/A/F/A/!<)! F/!ppp!A/F/A/ F/!ppp!A/F/A/ | %48
 z/!p! =d/B/d/ B/d/B/d/ B/d/B/d/ z/!p!!>(! ^A/^F/A/ F/A/F/A/ F/!>)!!pp!A/F/A/ | %49
 z/!ppp! B/^F/B/ F/!pp!B/F/B/ F/B/F/B/ F/B/F/B/ F/!ppp!B/F/B/ F/!ppp!B/F/B/ | %50
 (3z ^G^C (3z G^B, (3z GC ^^F/!pp!!<(!^D/F/^A/ ^^c/^d/^^f/^a/ (3^c'!<)!!mf!^d'd | %51
 (3z _BF (3z BE (3z BF =B/!p!!<(!G/B/d/ ^f/g/b/d'/ (3^f'!<)!!f!g'g | %52
 (3z cF (3z c_E (3z cF _B/!mp!!<(!G/B/_e/ ^f/g/_b/_e'/!8va(! (3[d'^f']!<)!!ff![_e'g']g!8va)! | %53
 (3z dA (3z dG (3z dA (3z d_B (3z dA (3z dB | x12 | x!8va(! x10!8va)! x | x12 | x12 | x12 | x12 || %60
[K:F#] x12 | x12 | x12 | x12 | x12 | x9!8va(! x3 | x12 | x12!8va)! | x12 | x12 | %70
 z/ c/A/c/ A/c/A/c/ A/c/A/c/ A/c/A/c/ A/!ppp!c/A/c/ A/!ppp!c/A/c/ | %71
 z/!ppp! =e/!<(!c/e/ c/e/c/e/ c/e/c/e/!<)! c/!>(!e/c/e/ c/!ppp!e/c/e/ c/!ppp!e/c/e/!>)! | %72
 z/!ppp! =a/f/a/ f/a/f/a/ f/a/f/a/ z/!ppp!!>(! g/e/g/ e/g/e/g/ e/g/e/!>)!!ppp!g/ | %73
 z/!ppp! f/c/f/ c/!ppp!f/c/f/ c/f/c/f/ c/f/c/f/ c/!ppp!f/c/f/ c/!ppp!f/c/f/ | %74
 z/!ppp! d/B/d/ B/!ppp!d/B/d/ e/!ppp!d/e/d/ ^^c/!>(!e/c/e/ ^^g/a/^^c'/d'/!8va(! (3^^g'a'!>)!!ppp!!tenuto![^^c''e'']!8va)! | %75
 z/!ppp! d/B/d/ B/!ppp!d/B/d/ e/!ppp!d/e/d/ ^^c/!>(!e/c/e/ ^^g/a/^^c'/d'/!8va(! (3^^g'a'!>)!!ppp!!tenuto![^^c''e'']!8va)! | %76
 x12 | x12 | x12 | x12 | x7[K:bass] x5 | x6[K:treble] x6 | z!p! [Ac][Ac][Ac]B!p![GB] x2 x4 | %83
 z!p!!<(! [f=a][fa][fa]!<)![f^a]!p![fa] x2!8va(! x4 | x6!8va)! x6 | x12 | x12 | %87
!8va(! =a'2 f'2 =d'2 =a2!8va)! f2 =d2 | =A2 F2 =D2 x2 x4 |[M:3/4] x6 | %90
[M:6/4] =a2 f2 =d2 =A2 F2 =D2 |[K:bass] =A,2 F,2 =D,2 F,6- | F,6- x2 x4[K:treble] | x7!8va(! x5 | %94
 x12!8va)! |] %95

